X:1
T:Pro nobis rerum
T:Daniel Friderici
T:Source : Bicinia sacra---Rostock---J.Richelius---1642. Editor :  André Vierendeels (01/07/17).
T:Notes : Original clefs : C1, C1 Editorial accidentals above the staff Square brackt indicates ligarure m 7 in S 1: "D" is missing in original print
T:Pro nobis rerum
T:©
T:©
T:©
C:Daniel Friderici
Z:©
%%score [ 1 2 ]
L:1/8
Q:1/4=120
M:2/2
K:F
V:1 treble nm="Soprano 1" snm="S 1"
V:2 treble nm="Soprano 2" snm="S 2"
V:1
 G4 d2 d2 | c3 c c2 B2 | A2 D2 G2 B2 | F3 F F2 G2 | D2 D2 DCDE | FEFG AGAB | cBcd e2 f2 | %7
w: Pro no- bis|re- rum Do- mi-|nus, pro no- bis|re- rum Do- mi-|nus, prae- ci- * * *||* * * * * di-|
 e2 e2 d4 | z2 d2 B3 A | G2 d2 B3 A | G2 D2 d3 c | B2 G2 c3 B | A2 F2 c3 B | A4 z2 d2 | %14
w: tur in- fans,|prae- ci- di-|tur, prae- ci- di-|tur, prae- ci- di-|tur, prae- ci- di-|tur, prae- ci- di-|tur, prae-|
 d3 d c2 B2 |[M:2/4] A4 :| z2 A2 |:[M:2/2] =B4 c4 | dcde f4- | f2 ed e4- | e2 dc d4- | d2 cB c4- | %22
w: ci- di- tur in-|fans:|In|se de-|ri- * * * *||||
 c2 BA B4- | B2 AG A4 | D2 B3 A A2 | A2 G4 ^F2 | G2 G3 G F2 | _E6 D2 | C8 | D8 | G8 :| %31
w: ||vans fle- bi- le|Le- gis o-|nus, fle- bi- le|Le- gis|o-||nus.|
V:2
 B4 G2 B2 | F3 F F2 G2 | D2 d2 d2 d2 | c3 c c2 B2 | A6 A2 | DCDE FEFG | AGAB c2 d2 | d2 ^c2 d2 d2 | %8
w: Pro no- bis|re- rum Do- mi-|nus, pro no- bis|re- rum Do- mi-|nus, prae-|ci- * * * * * * *|* * * * * di-|tur in- fans; prae-|
 B3 A G2 d2 | B3 A G2 d2 | d3 c B2 G2 | d3 d A2 F2 | c3 B A2 F2 | c3 B A2 G2 | D3 E F2 G2 | %15
w: ci- di- tur, prae-|ci- di- tur, prae-|ci- di- tur, prae-|ci- di- tur, prae-|ci- di- tur, prae-|ci- di- tur, prae-|ci- di- tur in-|
[M:2/4] A4 :| z2 ^F2 |:[M:2/2] G4 A4 | B6 AG | A6 GF | G6 FE | F6 ED | _E6 DC | D4 D2 d2- | %24
w: fans:|in|se de-|ri- * *|||||* vans fle-|
 dd d2 c4- | c2 B2 A4 | G2 B3 B c2 | cBcd _e4- | e2 d2 c4- | c2 B2 A4 | G8 :| %31
w: * bi- le Le|_ gis o-|nus, fle- bi- le|Le- * * * *|* gis o-||nus.|

